public/images/icons/mandala.svg

<svg xmlns="http://www.w3.org/2000/svg" width="800" height="800" viewBox="0 0 800 800"><g fill="none" stroke="#c9a84c"><circle cx="400" cy="400" r="50"/><circle cx="400" cy="400" r="100"/><circle cx="400" cy="400" r="150"/><circle cx="400" cy="400" r="200"/><circle cx="400" cy="400" r="250"/><circle cx="400" cy="400" r="300"/><circle cx="400" cy="400" r="350"/><circle cx="400" cy="400" r="390"/><g stroke-width=".8"><path d="M400 350q20 30 0-50-20 80 0 50m0 100q20-30 0 50-20-80 0-50m-50-50q30-20-50 0 80 20 50 0m100 0q-30-20 50 0-80 20-50 0"/><path d="M364.6 364.6q25.4 15.4-35.3-35.3 50.7 60.7 35.3 35.3m70.8 70.8Q410 420 470.7 470.7 420 410 435.4 435.4m0-70.8Q420 390 470.7 329.3 410 380 435.4 364.6m-70.8 70.8q15.4-25.4-35.3 35.3 60.7-50.7 35.3-35.3"/></g><path stroke-width=".8" d="M400 300c20-30 20-60 0-50-20-10-20 20 0 50m50 13.4c20-23.4 35-48.4 20-45.4-15-13-25 12-20 45.4m36.6 36.6c23.4-10 43.4-25 33.4-30-10-10-25 10-33.4 30m13.4 50c30 0 55-5 50-15s-30 0-50 15m-13.4 50c23.4 10 43.4 25 33.4 30-10 10-25-10-33.4-30M450 486.6c20 23.4 35 48.4 20 45.4-15 13-25-12-20-45.4M400 500c20 30 20 60 0 50-20 10-20-20 0-50m-50-13.4C330 510 315 535 330 532c15 13 25-12 20-45.4M313.4 450C290 460 270 475 280 480c10 10 25-10 33.4-30M300 400c-30 0-55-5-50-15s30 0 50 15m13.4-50C290 340 270 325 280 320c10-10 25 10 33.4 30m36.6-36.6C330 290 315 265 330 268c15-13 25 12 20 45.4"/><path stroke-width=".7" d="M400 250c10-30 5-55 0-50-5-5-10 20 0 50m38.3 6.1C452 228 455 205 448 208c-7-8-15 17-9.7 48.1m32.4 18.9c19.3-23 29.3-43 22.3-43-7-7-18 16-22.3 43m23.2 31.1C518 292 535 278 528 275c-3-7-23 10-34.1 31.1M500 350c28-5 48-15 45-22-3-6-23 7-45 22m6.1 43.9C532 390 552 382 548 375c0-7-20 3-41.9 18.9M500 450c28 5 48 15 45 22-3 6-23-7-45-22m-6.1 43.9C518 508 535 522 528 525c-3 7-23-10-34.1-31.1M470.7 525c19.3 23 29.3 43 22.3 43-7 7-18-16-22.3-43m-32.4 18.9C452 572 455 595 448 592c-7 8-15-17-9.7-48.1M400 550c10 30 5 55 0 50-5 5-10-20 0-50m-38.3-6.1C348 572 345 595 352 592c7 8 15-17 9.7-48.1M329.3 525C310 548 300 568 307 568c7 7 18-16 22.3-43m-23.2-31.1C282 508 265 522 272 525c3 7 23-10 34.1-31.1M300 450c-28 5-48 15-45 22 3 6 23-7 45-22m0-100c-28-5-48-15-45-22 3-6 23 7 45 22"/><path stroke-width=".6" d="M400 200q50-20 86.6 13.4m0 0Q520 250 550 250m0 0q30 30 36.6 63.4m0 0Q590 350 600 400m0 0q-10 50-13.4 86.6m0 0Q580 520 550 550m0 0q-30 30-63.4 36.6m0 0Q450 590 400 600m0 0q-50-10-86.6-13.4m0 0Q280 580 250 550m0 0q-30-30-36.6-63.4m0 0Q210 450 200 400m0 0q10-50 13.4-86.6m0 0Q220 280 250 250m0 0q30-30 63.4-36.6m0 0Q350 210 400 200"/><g stroke-width=".6"><path d="M400 150c8-30 4-55 0-50-4-5-8 20 0 50m25 2c11-29 11-54 5-50-5-7-10 20-5 50m25 8c15-27 20-52 13-50-6-7-18 20-13 50m23 13c19-23 29-45 21-45-7-8-24 17-21 45m20 19c22-19 37-37 29-40-7-7-30 16-29 40m15 23c27-15 44-30 37-35-8-5-35 15-37 35m12 27c28-10 48-22 42-27-7-7-37 10-42 27m7 31c31-5 51-13 45-20-7-5-40 5-45 20m3 32c30 0 52-5 48-12-6-5-40 0-48 12m0 190c30 0 52 5 48 12-6 5-40 0-48-12m-10 63c28 10 48 22 42 27-7 7-37-10-42-27m-27 50c22 19 37 37 29 40-7 7-30-16-29-40m-43 32c15 27 20 52 13 50-6 7-18-20-13-50m-50 10c8 30 4 55 0 50-4 5-8-20 0-50m-50-10c-15 27-20 52-13 50 6 7 18-20 13-50m-43-32c-22 19-37 37-29 40 7 7 30-16 29-40m-27-50c-28 10-48 22-42 27 7 7 37-10 42-27m-10-63c-30 0-52 5-48 12 6 5 40 0 48-12m0-190c-30 0-52-5-48-12 6-5 40 0 48 12m10-63c-28-10-48-22-42-27 7-7 37 10 42 27m27-50c-22-19-37-37-29-40 7-7 30 16 29 40m43-32c-15-27-20-52-13-50 6-7 18 20 13 50m25-8c-11-29-11-54-5-50 5-7 10 20 5 50"/><path d="M425 152c11-29 11-54 5-50-5-7-10 20-5 50"/></g><path stroke-width=".3" d="M400 350V50m0 400v300m-50-350H50m400 0h300m-385.4-35.4L152.5 152.5m282.9 282.9 212.1 212.1M435.4 364.6l212.1-212.1M364.6 435.4 152.5 647.5M381 351 270 88m149 361 111 263M351 419 88 530m361-149 263-111m-293 81L530 88M381 449 270 712m81-331L88 270m361 149 263 111"/><path stroke-width=".5" d="M400 10q30 20 45 45 15-25 45-35-10 30 0 55 20-20 50-23-15 28-10 53 25-15 52-10-19 25-20 50 28-10 50 3-22 20-29 44 29-4 47 13-25 15-37 37 29 1 42 23-27 7-45 25 28 8 35 32-30 0-50 13 25 15 25 43-30-8-52 0 20 20 14 47-27-13-50-10 13 25 3 50-25-17-48-20 6 27-9 50-20-20-43-25 0 28-20 48-13-23-33-33-7 27-30 43-7-26-24-40-13 24-38 34 0-27-12-47-18 20-43 23 7-28 0-48-23 15-47 12 14-24 12-47-25 10-48 0 18-23 23-45-25 5-47-5 22-17 32-37-25-3-40-20 25-10 38-28-23-10-33-30 25-2 43-17-20-15-26-35 26 2 43-10-15-20-15-40 25 7 45 0-10-23-7-43 24 10 44 7-4-24 6-47 20 15 40 17 2-24 17-44 17 20 33 27 7-25 24-43 13 23 23 46 10-26 25-58Z"/><g fill="#c9a84c" stroke="none"><circle cx="400" cy="300" r="2"/><circle cx="450" cy="313.4" r="2"/><circle cx="486.6" cy="350" r="2"/><circle cx="500" cy="400" r="2"/><circle cx="486.6" cy="450" r="2"/><circle cx="450" cy="486.6" r="2"/><circle cx="400" cy="500" r="2"/><circle cx="350" cy="486.6" r="2"/><circle cx="313.4" cy="450" r="2"/><circle cx="300" cy="400" r="2"/><circle cx="313.4" cy="350" r="2"/><circle cx="350" cy="313.4" r="2"/><circle cx="400" cy="200" r="2.5"/><circle cx="500" cy="227" r="2.5"/><circle cx="573" cy="300" r="2.5"/><circle cx="600" cy="400" r="2.5"/><circle cx="573" cy="500" r="2.5"/><circle cx="500" cy="573" r="2.5"/><circle cx="400" cy="600" r="2.5"/><circle cx="300" cy="573" r="2.5"/><circle cx="227" cy="500" r="2.5"/><circle cx="200" cy="400" r="2.5"/><circle cx="227" cy="300" r="2.5"/><circle cx="300" cy="227" r="2.5"/></g><circle cx="400" cy="400" r="8" fill="#c9a84c" stroke="none"/><circle cx="400" cy="400" r="15" stroke-width="1.5"/><circle cx="400" cy="400" r="25" stroke-width=".8"/></g></svg>

<svg xmlns="http://www.w3.org/2000/svg" viewBox="0 0 800 800" width="800" height="800">
  <g fill="none" stroke="#C9A84C" stroke-width="1" opacity="1">
    <!-- Concentric circles -->
    <circle cx="400" cy="400" r="50"/>
    <circle cx="400" cy="400" r="100"/>
    <circle cx="400" cy="400" r="150"/>
    <circle cx="400" cy="400" r="200"/>
    <circle cx="400" cy="400" r="250"/>
    <circle cx="400" cy="400" r="300"/>
    <circle cx="400" cy="400" r="350"/>
    <circle cx="400" cy="400" r="390"/>

    <!-- Inner 8-petal flower at r=50-100 -->
    <g stroke-width="0.8">
      <path d="M400,350 Q420,380 400,300 Q380,380 400,350"/>
      <path d="M400,450 Q420,420 400,500 Q380,420 400,450"/>
      <path d="M350,400 Q380,380 300,400 Q380,420 350,400"/>
      <path d="M450,400 Q420,380 500,400 Q420,420 450,400"/>
      <path d="M364.6,364.6 Q390,380 329.3,329.3 Q380,390 364.6,364.6"/>
      <path d="M435.4,435.4 Q410,420 470.7,470.7 Q420,410 435.4,435.4"/>
      <path d="M435.4,364.6 Q420,390 470.7,329.3 Q410,380 435.4,364.6"/>
      <path d="M364.6,435.4 Q380,410 329.3,470.7 Q390,420 364.6,435.4"/>
    </g>

    <!-- 12-petal layer at r=100-150 -->
    <g stroke-width="0.8">
      <path d="M400,300 C420,270 420,240 400,250 C380,240 380,270 400,300"/>
      <path d="M450,313.4 C470,290 485,265 470,268 C455,255 445,280 450,313.4"/>
      <path d="M486.6,350 C510,340 530,325 520,320 C510,310 495,330 486.6,350"/>
      <path d="M500,400 C530,400 555,395 550,385 C545,375 520,385 500,400"/>
      <path d="M486.6,450 C510,460 530,475 520,480 C510,490 495,470 486.6,450"/>
      <path d="M450,486.6 C470,510 485,535 470,532 C455,545 445,520 450,486.6"/>
      <path d="M400,500 C420,530 420,560 400,550 C380,560 380,530 400,500"/>
      <path d="M350,486.6 C330,510 315,535 330,532 C345,545 355,520 350,486.6"/>
      <path d="M313.4,450 C290,460 270,475 280,480 C290,490 305,470 313.4,450"/>
      <path d="M300,400 C270,400 245,395 250,385 C255,375 280,385 300,400"/>
      <path d="M313.4,350 C290,340 270,325 280,320 C290,310 305,330 313.4,350"/>
      <path d="M350,313.4 C330,290 315,265 330,268 C345,255 355,280 350,313.4"/>
    </g>

    <!-- 16-petal leaf pattern at r=150-200 -->
    <g stroke-width="0.7">
      <path d="M400,250 C410,220 405,195 400,200 C395,195 390,220 400,250"/>
      <path d="M438.3,256.1 C452,228 455,205 448,208 C441,200 433,225 438.3,256.1"/>
      <path d="M470.7,275 C490,252 500,232 493,232 C486,225 475,248 470.7,275"/>
      <path d="M493.9,306.1 C518,292 535,278 528,275 C525,268 505,285 493.9,306.1"/>
      <path d="M500,350 C528,345 548,335 545,328 C542,322 522,335 500,350"/>
      <path d="M506.1,393.9 C532,390 552,382 548,375 C548,368 528,378 506.1,393.9"/>
      <path d="M500,450 C528,455 548,465 545,472 C542,478 522,465 500,450"/>
      <path d="M493.9,493.9 C518,508 535,522 528,525 C525,532 505,515 493.9,493.9"/>
      <path d="M470.7,525 C490,548 500,568 493,568 C486,575 475,552 470.7,525"/>
      <path d="M438.3,543.9 C452,572 455,595 448,592 C441,600 433,575 438.3,543.9"/>
      <path d="M400,550 C410,580 405,605 400,600 C395,605 390,580 400,550"/>
      <path d="M361.7,543.9 C348,572 345,595 352,592 C359,600 367,575 361.7,543.9"/>
      <path d="M329.3,525 C310,548 300,568 307,568 C314,575 325,552 329.3,525"/>
      <path d="M306.1,493.9 C282,508 265,522 272,525 C275,532 295,515 306.1,493.9"/>
      <path d="M300,450 C272,455 252,465 255,472 C258,478 278,465 300,450"/>
      <path d="M300,350 C272,345 252,335 255,328 C258,322 278,335 300,350"/>
    </g>

    <!-- Decorative arcs at r=200-250 -->
    <g stroke-width="0.6">
      <path d="M400,200 Q450,180 486.6,213.4"/>
      <path d="M486.6,213.4 Q520,250 550,250"/>
      <path d="M550,250 Q580,280 586.6,313.4"/>
      <path d="M586.6,313.4 Q590,350 600,400"/>
      <path d="M600,400 Q590,450 586.6,486.6"/>
      <path d="M586.6,486.6 Q580,520 550,550"/>
      <path d="M550,550 Q520,580 486.6,586.6"/>
      <path d="M486.6,586.6 Q450,590 400,600"/>
      <path d="M400,600 Q350,590 313.4,586.6"/>
      <path d="M313.4,586.6 Q280,580 250,550"/>
      <path d="M250,550 Q220,520 213.4,486.6"/>
      <path d="M213.4,486.6 Q210,450 200,400"/>
      <path d="M200,400 Q210,350 213.4,313.4"/>
      <path d="M213.4,313.4 Q220,280 250,250"/>
      <path d="M250,250 Q280,220 313.4,213.4"/>
      <path d="M313.4,213.4 Q350,210 400,200"/>
    </g>

    <!-- 24-petal outer layer at r=250-300 -->
    <g stroke-width="0.6">
      <path d="M400,150 C408,120 404,95 400,100 C396,95 392,120 400,150"/>
      <path d="M425,152 C436,123 436,98 430,102 C425,95 420,122 425,152"/>
      <path d="M450,160 C465,133 470,108 463,110 C457,103 445,130 450,160"/>
      <path d="M473,173 C492,150 502,128 494,128 C487,120 470,145 473,173"/>
      <path d="M493,192 C515,173 530,155 522,152 C515,145 492,168 493,192"/>
      <path d="M508,215 C535,200 552,185 545,180 C537,175 510,195 508,215"/>
      <path d="M520,242 C548,232 568,220 562,215 C555,208 525,225 520,242"/>
      <path d="M527,273 C558,268 578,260 572,253 C565,248 532,258 527,273"/>
      <path d="M530,305 C560,305 582,300 578,293 C572,288 538,293 530,305"/>
      <path d="M530,495 C560,495 582,500 578,507 C572,512 538,507 530,495"/>
      <path d="M520,558 C548,568 568,580 562,585 C555,592 525,575 520,558"/>
      <path d="M493,608 C515,627 530,645 522,648 C515,655 492,632 493,608"/>
      <path d="M450,640 C465,667 470,692 463,690 C457,697 445,670 450,640"/>
      <path d="M400,650 C408,680 404,705 400,700 C396,705 392,680 400,650"/>
      <path d="M350,640 C335,667 330,692 337,690 C343,697 355,670 350,640"/>
      <path d="M307,608 C285,627 270,645 278,648 C285,655 308,632 307,608"/>
      <path d="M280,558 C252,568 232,580 238,585 C245,592 275,575 280,558"/>
      <path d="M270,495 C240,495 218,500 222,507 C228,512 262,507 270,495"/>
      <path d="M270,305 C240,305 218,300 222,293 C228,288 262,293 270,305"/>
      <path d="M280,242 C252,232 232,220 238,215 C245,208 275,225 280,242"/>
      <path d="M307,192 C285,173 270,155 278,152 C285,145 308,168 307,192"/>
      <path d="M350,160 C335,133 330,108 337,110 C343,103 355,130 350,160"/>
      <path d="M375,152 C364,123 364,98 370,102 C375,95 380,122 375,152"/>
      <path d="M425,152 C436,123 436,98 430,102 C425,95 420,122 425,152"/>
    </g>

    <!-- Radial lines (32 spokes) -->
    <g stroke-width="0.3">
      <line x1="400" y1="350" x2="400" y2="50"/>
      <line x1="400" y1="450" x2="400" y2="750"/>
      <line x1="350" y1="400" x2="50" y2="400"/>
      <line x1="450" y1="400" x2="750" y2="400"/>
      <line x1="364.6" y1="364.6" x2="152.5" y2="152.5"/>
      <line x1="435.4" y1="435.4" x2="647.5" y2="647.5"/>
      <line x1="435.4" y1="364.6" x2="647.5" y2="152.5"/>
      <line x1="364.6" y1="435.4" x2="152.5" y2="647.5"/>
      <line x1="381" y1="351" x2="270" y2="88"/>
      <line x1="419" y1="449" x2="530" y2="712"/>
      <line x1="351" y1="419" x2="88" y2="530"/>
      <line x1="449" y1="381" x2="712" y2="270"/>
      <line x1="419" y1="351" x2="530" y2="88"/>
      <line x1="381" y1="449" x2="270" y2="712"/>
      <line x1="351" y1="381" x2="88" y2="270"/>
      <line x1="449" y1="419" x2="712" y2="530"/>
    </g>

    <!-- Outermost decorative scallop border -->
    <g stroke-width="0.5">
      <path d="M400,10 Q430,30 445,55 Q460,30 490,20 Q480,50 490,75 Q510,55 540,52 Q525,80 530,105 Q555,90 582,95 Q563,120 562,145 Q590,135 612,148 Q590,168 583,192 Q612,188 630,205 Q605,220 593,242 Q622,243 635,265 Q608,272 590,290 Q618,298 625,322 Q595,322 575,335 Q600,350 600,378 Q570,370 548,378 Q568,398 562,425 Q535,412 512,415 Q525,440 515,465 Q490,448 467,445 Q473,472 458,495 Q438,475 415,470 Q415,498 395,518 Q382,495 362,485 Q355,512 332,528 Q325,502 308,488 Q295,512 270,522 Q270,495 258,475 Q240,495 215,498 Q222,470 215,450 Q192,465 168,462 Q182,438 180,415 Q155,425 132,415 Q150,392 155,370 Q130,375 108,365 Q130,348 140,328 Q115,325 100,308 Q125,298 138,280 Q115,270 105,250 Q130,248 148,233 Q128,218 122,198 Q148,200 165,188 Q150,168 150,148 Q175,155 195,148 Q185,125 188,105 Q212,115 232,112 Q228,88 238,65 Q258,80 278,82 Q280,58 295,38 Q312,58 328,65 Q335,40 352,22 Q365,45 375,68 Q385,42 400,10 Z" fill="none"/>
    </g>

    <!-- Inner decorative dots on concentric circles -->
    <g fill="#C9A84C" stroke="none">
      <!-- dots at r=100, every 30 degrees -->
      <circle cx="400" cy="300" r="2"/>
      <circle cx="450" cy="313.4" r="2"/>
      <circle cx="486.6" cy="350" r="2"/>
      <circle cx="500" cy="400" r="2"/>
      <circle cx="486.6" cy="450" r="2"/>
      <circle cx="450" cy="486.6" r="2"/>
      <circle cx="400" cy="500" r="2"/>
      <circle cx="350" cy="486.6" r="2"/>
      <circle cx="313.4" cy="450" r="2"/>
      <circle cx="300" cy="400" r="2"/>
      <circle cx="313.4" cy="350" r="2"/>
      <circle cx="350" cy="313.4" r="2"/>
      <!-- dots at r=200 -->
      <circle cx="400" cy="200" r="2.5"/>
      <circle cx="500" cy="227" r="2.5"/>
      <circle cx="573" cy="300" r="2.5"/>
      <circle cx="600" cy="400" r="2.5"/>
      <circle cx="573" cy="500" r="2.5"/>
      <circle cx="500" cy="573" r="2.5"/>
      <circle cx="400" cy="600" r="2.5"/>
      <circle cx="300" cy="573" r="2.5"/>
      <circle cx="227" cy="500" r="2.5"/>
      <circle cx="200" cy="400" r="2.5"/>
      <circle cx="227" cy="300" r="2.5"/>
      <circle cx="300" cy="227" r="2.5"/>
    </g>

    <!-- Center ornament -->
    <circle cx="400" cy="400" r="8" fill="#C9A84C" stroke="none"/>
    <circle cx="400" cy="400" r="15" stroke-width="1.5"/>
    <circle cx="400" cy="400" r="25" stroke-width="0.8"/>
  </g>
</svg>
